X:1
T:Kiss the rain
T:Kiss the rain
L:1/8
Q:1/4=85
M:4/4
K:Bb
V:1 treble transpose=-2 nm="B♭ Clarinet" snm="B♭ Cl."
V:1
 z/ B,/E/F/ FG G4- | G/E/F/G/ FB B4- | B/B/c/d/ de e2- ef | (3gfe d4- de | dBBc c4- | %5
 cB/_A/ AB B4- | BE/F/ GG _AA- A2 | B_A G4 FB, | EFFG G4- | G/E/F/G/ FB B4- | B/B/c/d/ de e2- ef | %11
 (3gfe d4- de | dBBc c4- | cB/_A/ AB B4- | BE/F/ G_A AC E2 | D2 E2 F_AGE | GB c2 B2 ED | %17
 EcBB, EDED | EBB_A AGGF | FEFG G2- GE | GBcG, CEDd | dc B3 G/_A/ BE | _AG A2 B2 c>d- | de g4 fB, | %24
 EFFG G4- | G/E/F/G/ FB B4- | B/B/c/d/ de e2- ef | (3gfe d4- de | dBBc c4- | cB/_A/ AB B4- | %30
 BE/F/ G_A A4 | B_A G4 FB, | EFFG G4- | G/E/F/G/ FB B4- | B/B/c/d/ de e2- ef | (3gfe d4- de | %36
 dBBc c4- | cB/_A/ AB B4- | BE/F/ G_A AB, E2 | D2 E4- EE | GB c2 B2 ED | EcBB, EDED | EBB_A AGGF | %43
 FEFG G2- GE | GBcG, CEDd | dc B3 G/_A/ BE | _AG A2 B2 c>d- | de g4 fB | effg g4- | %49
 g/e/f/g/ fb b4- | b/B/c/d/ de e2- ef | (3gfe d4- de | dBBc c4- | cB/_A/ AB B4- | %54
 BE/F/ G_A AB, E2 | D2 A_F _A=A_cF | A_cc_d d4- | d/A/_c/_d/ c_f f4- | f/_f/_g/_a/ a=a a2- a_c' | %59
 (3_d'_c'a _a4- a=a | _a_ff_g g4- | g_f/d/ df f4- | fA/_c/ _d=d d_G A2 | _A2 =A6 | _c_dd=d d_G A2 | %65
 _A2 =A6- | A2 z4 z2 | z2 z2 z4 |] %68

